!!!!SEGMENT: pl-kk--kk-i-2--052-005_pekiel-bartlomiej--missa-secunda-benedictus.krn
!!!cenid: 16xx:1739
!!!COM: Pękiel, Bartłomiej
!!!COM-rismID: pe30105642
!!!CDT: <1633-~1670
!!!CNT: Polish
!!!OPR: Missa secunda
!!!OTL: Benedictus
!!!OMV: 005
!!!PDT:
!!!AGN: Sacred; Mass
!!!SMS-siglum: PL-Kk
!!!SMS-shelfmark: Kk.I.2
!!!SMS-shelfwork: 052-005 M
!!!NIFC-rismSourceID: 300258016
!!!NIFC-rismChildID: 300258070
!!!NIFC-islandoraID: pl-kk:750
!!!URL-pdf-islandora: https://repozytorium.nifc.pl/islandora/object/pl-kk%3A750/datastream/PDF/view#page=91
!!!URL-scan: https://polish.musicsources.pl/pl/lokalizacje/galeria/rekopisy/5828 @EN{Scan on Polish Music Sources Website} @PL{Skany w portalu Dziedzictwo Muzyki Polskiej w otwartym dostępie}
!!!IIIF: https://repozytorium.nifc.pl/islandora/object/pl-kk%3A750/datastream/IIIF/view#page=87
!!!ONB-nifc: Części mszy: Kyrie, Gloria, Credo, Sanctus, Benedictus, Agnus Dei; skany: C: 0095; A: 0199; T: 0298; B: 0400
!!!AIN: 1 alto 1 bass 1 soprn 1 tenor
!!!key: F:ion
**kern	**text	**kern	**text	**kern	**text	**kern	**text
*part4	*part4	*part3	*part3	*part2	*part2	*part1	*part1
*staff4	*staff4	*staff3	*staff3	*staff2	*staff2	*staff1	*staff1
*I"BASVS	*	*I"TENOR	*	*I"ALTVS	*	*I"DISCANTVS	*
*I'B	*	*I'T	*	*I'A	*	*I'S	*
*Ibass	*	*Itenor	*	*Ialto	*	*Isoprn	*
*ICvox	*	*ICvox	*	*ICvox	*	*ICvox	*
*mI"Basso	*	*mI"Tenore	*	*mI"Alto	*	*mI"Sooprano	*
*clefF4	*	*clefC4	*	*clefC4	*	*clefC3	*
*	*	*mclefGv2	*	*mclefGv2	*	*mclefGv2	*
*k[b-]	*	*k[b-]	*	*k[b-]	*	*k[b-]	*
*F:ion	*	*F:ion	*	*F:ion	*	*F:ion	*
*M2/1	*	*M2/1	*	*M2/1	*	*M2/1	*
*met(C|)	*	*met(C|)	*	*met(C|)	*	*met(C|)	*
*mmet(c)	*	*mmet(c)	*	*mmet(c)	*	*mmet(c)	*
=1-	=1-	=1-	=1-	=1-	=1-	=1-	=1-
*xywh-#400:1683,3482,6266,1082	*	*xywh-#298:3204,1807,4404,963	*	*xywh-#199:2767,703,5104,1102	*	*xywh-#95:7837,541,6663,1211	*
00r	.	00r	.	00r	.	1.f	Be-
*	*	*	*	*	*	*2\right	*
!	!	!	!	!	!	!LO:TX:t=P:problem:kreska pseudotaktowa	!
.	.	.	.	.	.	2e\	-ne-
=2-	=2-	=2-	=2-	=2-	=2-	=2-	=2-
.	.	.	.	.	.	1d	-di-
!	!	!	!	!	!	!	!LO:MO:mod=-ctus
.	.	.	.	.	.	1.c,<	-ct(us)
=3-	=3-	=3-	=3-	=3-	=3-	=3-	=3-
!	!	!	!	!LO:TX:t=P:problem:kreska pseudotaktowa	!	!	!
00r	.	00r	.	0r	.	.	.
!	!	!	!	!	!	!LO:TX:t=P:problem:kreska pseudotaktowa	!
.	.	.	.	.	.	2c/	qui
.	.	.	.	.	.	4d\	ve-
.	.	.	.	.	.	4e\	.
.	.	.	.	.	.	4f\	.
!	!	!	!	!	!	!LO:TX:t=P:problem:kreska pseudotaktowa	!
.	.	.	.	.	.	4d\	.
=4-	=4-	=4-	=4-	=4-	=4-	=4-	=4-
.	.	.	.	1.c	Be-	2e\	.
.	.	.	.	.	.	4c\	.
!	!	!	!	!	!	!LO:TX:t=P:problem:kreska pseudotaktowa	!
.	.	.	.	.	.	4d\	.
.	.	.	.	.	.	4e\	.
.	.	.	.	.	.	4c/	.
!	!	!	!	!LO:TX:t=P:problem:kreska pseudotaktowa	!	!	!
.	.	.	.	2A/	-ne-	1f\	.
=5-	=5-	=5-	=5-	=5-	=5-	=5-	=5-
!LO:TX:t=P:problem:kreska pseudotaktowa	!	!	!	!	!	!	!
0r	.	00r	.	1G	-di-	.	.
!	!	!	!	!	!	!LO:TX:t=P:problem:kreska pseudotaktowa	!
.	.	.	.	.	.	2e\	.
!	!	!	!	!	!LO:MO:mod=-ctus	!	!
.	.	.	.	2F/	-ct(us)	2f\	-nit
!	!	!	!	!LO:TX:t=P:problem:kreska pseudotaktowa	!	!LO:TX:t=P:problem:kreska pseudotaktowa	!
.	.	.	.	2F/	qui	2a\	qui
=6-	=6-	=6-	=6-	=6-	=6-	=6-	=6-
!	!	!	!	!	!LO:MO:mod=ve-	!	!
1.F	Be-	.	.	4A/	Ve-	4f\	ve-
.	.	.	.	4B-/	.	4g\	.
.	.	.	.	4c/	.	4a\	.
.	.	.	.	4A/	.	4f\	.
!	!	!	!	!LO:N:acc=#	!	!	!
*2\right	*	*	*	*	*	*lig	*
.	.	.	.	4Bn\	.	1g	.
.	.	.	.	4G/	.	.	.
!LO:TX:t=P:problem:kreska pseudotaktowa	!	!	!	!	!	!	!
2E\	-ne	.	.	1c\	.	.	.
=7-	=7-	=7-	=7-	=7-	=7-	=7-	=7-
!	!	!	!	!	!	!LO:TX:t=P:problem:kreska pseudotaktowa	!
1D	di-	0r	.	.	.	1f	.
!	!	!	!	!LO:TX:t=P:problem:kreska pseudotaktowa	!	!	!
!	!	!	!	!LO:SIC:s=2Bni	!	!	!
.	.	.	.	2Bny\	.	.	.
*	*	*	*	*	*	*Xlig	*
!	!LO:MO:mod=-ctus	!	!	!LO:TX:t=P:problem:kreska pseudotaktowa	!	!	!
2C/	-ct(us)	.	.	1c	-nit	2e,<\	-nit
!LO:TX:t=P:problem:kreska pseudotaktowa	!	!	!	!	!	!	!
2C/	qui	.	.	.	.	2e\	qui
=8-	=8-	=8-	=8-	=8-	=8-	=8-	=8-
*	*	*	*	*	*	*lig	*
!	!LO:MO:mod=ve-	!LO:TX:t=P:problem:kreska pseudotaktowa	!	!	!	!	!
4D\	Ve-	1r	.	0r	.	1d	ve-
4E\	.	.	.	.	.	.	.
4F\	.	.	.	.	.	.	.
!LO:TX:t=P:problem:kreska pseudotaktowa	!	!	!	!	!	!	!
4D/	.	.	.	.	.	.	.
*	*	*2\right	*	*	*	*	*
4E\	.	2.c\	Be-	.	.	1c	.
4C/	.	.	.	.	.	.	.
1F\	.	.	.	.	.	.	.
.	.	4A/	-ne	.	.	.	.
*	*	*	*	*	*	*Xlig	*
=9-	=9-	=9-	=9-	=9-	=9-	=9-	=9-
!	!	!	!	!	!	!LO:TX:t=P:problem:kreska pseudotaktowa	!
.	.	1G	di-	2r	.	1c	-nit
*	*	*	*	*2\right	*	*	*
!LO:TX:t=P:problem:kreska pseudotaktowa	!	!	!	!LO:TX:t=P:problem:kreska pseudotaktowa	!	!	!
2E\	.	.	.	2c\	qui	.	.
!	!	!	!LO:MO:mod=-ctus	!	!	!	!
2F\	-nit	2F/	-ct(us)	4A\	ve-	0r	.
.	.	.	.	4B-y\	.	.	.
!	!	!LO:TX:t=P:problem:kreska pseudotaktowa	!	!	!	!	!
2F\	qui	2A/	qui	4c\	.	.	.
.	.	.	.	4A/	.	.	.
=10-	=10-	=10-	=10-	=10-	=10-	=10-	=10-
!	!LO:MO:mod=ve-	!	!LO:MO:mod=ve-	!	!	!	!
4D/	Ve-	4F/	Ve-	1d	.	.	.
4E\	.	4G/	.	.	.	.	.
4F\	.	4A/	.	.	.	.	.
!LO:TX:t=P:problem:kreska pseudotaktowa	!	!	!	!	!	!	!
4D/	.	4F/	.	.	.	.	.
1G	.	1B-	.	2d\	-nit	2r	.
!	!	!	!	!LO:TX:t=P:problem:kreska pseudotaktowa	!	!LO:TX:t=P:problem:kreska pseudotaktowa	!
.	.	.	.	2r	.	2d\	qui
=11-	=11-	=11-	=11-	=11-	=11-	=11-	=11-
!	!	!	!	!	!	!	!LO:MO:mod=ve-
2E\	-nit	2G/	-nit	00r	.	4e\	Ve-
.	.	.	.	.	.	4f\	.
!	!	!LO:TX:t=P:problem:kreska pseudotaktowa	!	!	!	!	!
2C/	qui	2c\	qui	.	.	4g\	.
!	!	!	!	!	!	!LO:TX:t=P:problem:kreska pseudotaktowa	!
.	.	.	.	.	.	4e\	.
!	!LO:MO:mod=ve-	!	!LO:MO:mod=ve-	!	!	!	!
(1F	Ve-	4A\	Ve-	.	.	2f,<\	-nit
.	.	4B-\	.	.	.	.	.
.	.	4c\	.	.	.	1f\	Be-
.	.	4A\	.	.	.	.	.
=12-	=12-	=12-	=12-	=12-	=12-	=12-	=12-
1.BB-)	.	4d\	.	.	.	.	.
.	.	4B-\	.	.	.	.	.
!	!	!	!	!	!	!LO:TX:t=P:problem:kreska pseudotaktowa	!
!	!	!	!	!	!	!LO:SIC:v:t=custos c	!
.	.	2f\	.	.	.	2d\	-ne-
!	!	!LO:TX:t=P:problem:kreska pseudotaktowa	!	!	!	!	!
*	*	*	*	*	*	*xywh-#95:8101,1591,5998,1003	*
!	!	!LO:SIC:v:t=custos d	!	!	!	!LO:LB:g=original	!
.	.	1e-X	.	.	.	1c	-di-
!LO:TX:t=P:problem:kreska pseudotaktowa	!	!	!	!	!	!	!
2AA/	.	.	.	.	.	.	.
*	*	*xywh-#298:1503,2643,6046,1002	*	*	*	*	*
!	!	!LO:LB:g=original	!	!	!	!	!
=13-	=13-	=13-	=13-	=13-	=13-	=13-	=13-
!LO:TX:t=P:problem:kreska pseudotaktowa	!	!LO:TX:t=P:problem:kreska pseudotaktowa	!	!	!	!	!LO:MO:mod=-ctus
1BB-,<	-nit	1d	-nit	1.f	Be-	2B-/	-ct(us)
!	!	!	!	!	!	!LO:TX:t=P:problem:kreska pseudotaktowa	!
.	.	.	.	.	.	2B-/	qui
!	!	!	!	!	!	!	!LO:MO:mod=ve-
1.B-	Be-	0r	.	.	.	4d\	Ve-
.	.	.	.	.	.	4e\	.
.	.	.	.	2d\	-ne-	4f\	.
!	!	!	!	!	!	!LO:TX:t=P:problem:kreska pseudotaktowa	!
.	.	.	.	.	.	4d\	.
=14-	=14-	=14-	=14-	=14-	=14-	=14-	=14-
.	.	.	.	1c	-di-	4e\	.
.	.	.	.	.	.	4c/	.
!LO:TX:t=P:problem:kreska pseudotaktowa	!	!	!	!	!	!	!
2A\	-ne	.	.	.	.	1f	.
!	!	!	!	!LO:TX:t=P:problem:kreska pseudotaktowa	!	!	!
!	!	!	!	!LO:SIC:v:t=custos G	!LO:MO:mod=-ctus	!	!
1G	di-	2r	.	1B-	-ct(us)	.	.
*	*	*	*ij	*	*	*	*
!	!	!LO:TX:t=P:problem:kreska pseudotaktowa	!	!	!	!LO:TX:t=P:problem:kreska pseudotaktowa	!
.	.	2G/	qui	.	.	2e\	.
*	*	*	*	*xywh-#199:1675,1617,6077,953	*	*	*
!	!	!	!	!LO:LB:g=original	!	!	!
=15-	=15-	=15-	=15-	=15-	=15-	=15-	=15-
!	!LO:MO:mod=-ctus	!	!LO:MO:mod=ve-	!LO:TX:t=P:problem:kreska pseudotaktowa	!	!	!
2F\	-ct(us)	4A/	Ve-	0r	.	1.f	.
.	.	4B-\	.	.	.	.	.
2F\	qui	4c\	.	.	.	.	.
!	!	!LO:TX:t=P:problem:kreska pseudotaktowa	!	!	!	!	!
.	.	4A/	.	.	.	.	.
!LO:TX:t=P:problem:kreska pseudotaktowa	!LO:MO:mod=ve-	!LO:N:acc=#	!	!	!	!	!
0G	Ve-	4Bn\	.	.	.	.	.
.	.	4G/	.	.	.	.	.
!	!	!	!	!	!	!LO:TX:t=P:problem:kreska pseudotaktowa	!
.	.	1c\	.	.	.	2e-X\	.
=16-	=16-	=16-	=16-	=16-	=16-	=16-	=16-
!LO:SIC:v:t=custos C	!	!	!	!	!	!	!
.	.	.	.	2r	.	1d	.
!	!	!LO:N:acc=#	!	!	!	!	!
.	.	2Bn\	.	1G	in	.	.
*xywh-#400:1693,4287,6246,943	*	*	*	*	*	*	*
!LO:LB:g=original	!	!LO:TX:t=P:problem:kreska pseudotaktowa	!	!	!	!LO:TX:t=P:problem:kreska pseudotaktowa	!
1C	-nit	1c	-nit	.	.	1eny	nit
*	*	*	*Xij	*	*	*	*
.	.	.	.	2.c\	no-	.	.
=17-	=17-	=17-	=17-	=17-	=17-	=17-	=17-
2FF/	in	1r	.	.	.	2r	.
.	.	.	.	4c\	-mi-	.	.
2.F\	no-	.	.	2.A/	-ne	2c/	in
.	.	1F	in	.	.	2.f\	no-
*	*	*	*	*	*ij	*	*
4F\	-mi-	.	.	4A/	in	.	.
!LO:TX:t=P:problem:kreska pseudotaktowa	!	!	!	!LO:TX:t=P:problem:kreska pseudotaktowa:między nutą a kropką	!	!	!
2D/	-ne	.	.	2.d\	no-	.	.
!	!	!	!	!	!	!LO:TX:t=P:problem:kreska pseudotaktowa	!
.	.	.	.	.	.	4f\	-mi-
=18-	=18-	=18-	=18-	=18-	=18-	=18-	=18-
*lig	*	*	*	*	*	*	*
1G	Do-	2.B-y\	no-	.	.	4d\	-ne
*	*	*	*	*	*	*	*ij
.	.	.	.	4d\	-mi-	4d\	in
.	.	.	.	1G	-ne	2.g\	no-
*	*	*	*	*	*Xij	*	*
!	!	!LO:TX:t=P:problem:kreska pseudotaktowa	!	!	!	!	!
.	.	4B-\	-mi-	.	.	.	.
!LO:TX:a:t=P:problem:♭ above	!	!	!	!	!	!	!
1E-X	.	1G	-ne	.	.	.	.
.	.	.	.	.	.	4g\	-mi-
!	!	!	!	!	!	!LO:TX:t=P:problem:kreska pseudotaktowa	!
.	.	.	.	1e-X\	Do-	2g\	-ne
*Xlig	*	*	*	*	*	*	*Xij
=19-	=19-	=19-	=19-	=19-	=19-	=19-	=19-
1.F	.	2A/	Do-	.	.	1.f	Do-
!	!	!	!	!LO:TX:t=P:problem:kreska pseudotaktowa	!	!	!
.	.	1B-	.	2d\	.	.	.
.	.	.	.	2.c\	.	.	.
!LO:TX:t=P:problem:kreska pseudotaktowa	!	!LO:TX:t=P:problem:kreska pseudotaktowa	!	!	!	!	!
2F\	-mi-	2A/	-mi-	.	.	2f\	-mi-
!	!	!	!	!LO:TX:t=P:problem:kreska pseudotaktowa	!	!	!
.	.	.	.	4c\	mi-	.	.
=20-	=20-	=20-	=20-	=20-	=20-	=20-	=20-
!LO:TX:t=P:problem:kreska pseudotaktowa	!	!	!	!	!	!LO:TX:t=P:problem:kreska pseudotaktowa	!
1BB-	-ni	2B-\	-ni	1d	-ni	1f	-ni
*	*ij	*	*ij	*	*	*	*
.	.	2F/	in	.	.	.	.
1BB-	in	2.B-\	no-	1r	.	2r	.
.	.	.	.	.	.	2d\	in
!	!	!LO:TX:t=P:problem:kreska pseudotaktowa	!	!	!	!	!
.	.	4B-\	-mi-	.	.	.	.
=21-	=21-	=21-	=21-	=21-	=21-	=21-	=21-
2.E-X\	no-	1G	-ne	2r	.	2.g\	no-
*	*	*	*Xij	*	*ij	*	*
.	.	.	.	1G	in	.	.
!	!	!	!	!	!	!LO:TX:t=P:problem:kreska pseudotaktowa	!
4E-\	-mi-	.	.	.	.	4g\	-mi-
!LO:TX:t=P:problem:kreska pseudotaktowa	!	!	!	!	!	!	!
1C	-ne	2.c\	Do-	.	.	1e-X	-ne
!	!	!	!	!LO:TX:t=P:problem:kreska pseudotaktowa:między nutą a kropką	!	!	!
.	.	.	.	2.c\	no-	.	.
.	.	4B-\	.	.	.	.	.
=22-	=22-	=22-	=22-	=22-	=22-	=22-	=22-
2.F\	Do-	4A/	.	.	.	0.f	Do-
.	.	4G/	.	4c\	-mi-	.	.
!	!	!LO:TX:t=P:problem:kreska pseudotaktowa	!	!	!	!	!
.	.	2F/	.	2A/	-ne	.	.
!LO:SIC:s=4E-i	!	!	!	!	!	!	!
4E-y\	.	.	.	.	.	.	.
2D/	.	2.f\	.	2d\	Do-	.	.
2AA/	.	.	.	1c\	.	.	.
.	.	4e-X\	.	.	.	.	.
=23-	=23-	=23-	=23-	=23-	=23-	=23-	=23-
1.BB-	.	1.d	.	.	.	.	.
.	.	.	.	4B-\	.	.	.
!	!	!	!	!LO:TX:t=P:problem:kreska pseudotaktowa	!	!	!
.	.	.	.	4A/	.	.	.
.	.	.	.	2.B-\	.	1f	-mi-
!	!	!LO:TX:t=P:problem:kreska pseudotaktowa	!	!	!	!	!
!LO:TX:t=P:problem:kreska pseudotaktowa	!	!LO:SIC:v:t=custos c	!	!	!	!	!
2BB-/	-mi-	2d\	-mi-	.	.	.	.
.	.	.	.	4B-\	-mi-	.	.
*	*	*xywh-#298:1483,3488,4561,973	*	*	*	*	*
!	!	!LO:LB:g=original	!	!	!	!	!
=24-	=24-	=24-	=24-	=24-	=24-	=24-	=24-
!LO:MO:mod=2.FF,	!	!	!	!	!	!	!
2FF;/	-ni	2.c,<\	-ni	2.A,</	-ni	2.f,<\	-(ni)
*	*Xij	*	*	*	*Xij	*	*
!LO:MO:null:mod=.	!	!	!	!	!	!	!
4r	.	.	.	.	.	.	.
!	!	!	!	!	!	!LO:TX:t=P:problem:kreska pseudotaktowa	!
!LO:TX:t=P:problem:kreska pseudotaktowa	!	!LO:TX:t=P:problem:kreska pseudotaktowa	!	!LO:TX:t=P:problem:kreska pseudotaktowa	!	!LO:SIC:v:t=custos f	!
4F\	Ho-	4c\	Ho-	4A/	Ho-	4f\	Ho
*	*	*	*	*	*	*xywh-#95:8012,2406,4359,993	*
!	!	!	!	!	!	!LO:LB:g=original	!LO:MO:mod=-san
4.B-\	-san	4.d\	-san-	4.B-\	-san-	4.f\	sa(n)-
8F\	na	8c\	na	8A/	-na	8f\	-na
4G\	in	4B-\	in	4G/	in	4.d\	in
!LO:TX:t=P:problem:kreska pseudotaktowa	!	!LO:TX:t=P:problem:kreska pseudotaktowa	!	!LO:TX:t=P:problem:kreska pseudotaktowa	!	!	!
4D/	ex-	4A\	ex-	4F#X/	ex-	.	.
!	!	!	!	!	!	!LO:TX:t=P:problem:kreska pseudotaktowa	!
.	.	.	.	.	.	8d\	ex-
=25-	=25-	=25-	=25-	=25-	=25-	=25-	=25-
2E-X\	-cel-	2c\	-cel-	2G/	-cel-	2c/	-cel-
!	!	!LO:TX:t=P:problem:kreska pseudotaktowa	!	!LO:TX:t=P:problem:kreska pseudotaktowa	!	!LO:TX:t=P:problem:kreska pseudotaktowa	!
2D/	ſis	2A\	-ſis	2F#X/	ſis	2d\	ſis
4r	.	4r	.	4r	.	4r	.
*	*ij	*	*ij	*	*	*	*ij
4BB-/	Ho-	4B-\	Ho-	4d\	Ho-	4f\	Ho-
!	!	!	!	!	!LO:MO:mod=-san	!	!LO:MO:mod=-san
4.F\	-san-	4.A\	-san-	4.c\	-sa(n)-	4.f\	-sa(n)-
!	!	!	!	!LO:TX:t=P:problem:kreska pseudotaktowa	!	!	!
!LO:TX:t=P:problem:kreska pseudotaktowa	!	!LO:TX:t=P:problem:kreska pseudotaktowa	!	!LO:SIC:v:t=custos B	!	!LO:TX:t=P:problem:kreska pseudotaktowa	!
8D/	-na	8B-\	-na	8d\	-na	8f\	-na
*	*	*	*	*xywh-#199:1596,2392,2840,1042	*	*	*
!	!	!	!	!LO:LB:g=original	!	!	!
=26-	=26-	=26-	=26-	=26-	=26-	=26-	=26-
4E-X\	in	4.G/	in	8B-\	in	4.e-X\	in
.	.	.	.	8G/	ex-	.	.
4C/	ex-	.	.	2c\	-cel-	.	.
.	.	8G/	ex-	.	.	8e-\	ex-
!LO:TX:t=P:problem:kreska pseudotaktowa	!	!	!	!	!	!	!
!LO:SIC:v:t=custos C	!	!LO:TX:t=P:problem:kreska pseudotaktowa	!	!	!	!LO:TX:t=P:problem:kreska pseudotaktowa	!
2G\	-cel-	2G/	-cel-	.	.	2d\	-cel-
!	!	!	!	!LO:TX:t=P:problem:kreska pseudotaktowa	!	!	!
!	!	!	!	!LO:TX:t=P:problem:# above	!	!	!
!	!	!	!	!LO:N:acc=#	!	!	!
.	.	.	.	4Bn\	.	.	.
*xywh-#400:8048,850,2274,1022	*	*	*	*	*	*	*
!LO:PB:g=original	!	!	!	!	!	!LO:N:acc=#	!
2C/	-ſis	2G/	-ſis	2c\	ſis	2en\	-ſis
*	*	*	*	*	*ij	*	*Xij
4r	.	4r	.	4r	.	4r	.
!LO:TX:t=P:problem:kreska pseudotaktowa	!	!LO:TX:t=P:problem:kreska pseudotaktowa	!	!LO:TX:t=P:problem:kreska pseudotaktowa	!	!LO:TX:t=P:problem:kreska pseudotaktowa	!
4C/	Ho-	4G/	Ho-	4c\	Ho-	4e\	Ho-
=27-	=27-	=27-	=27-	=27-	=27-	=27-	=27-
4.F\	-san-	4.A/	-san-	4.c\	-san-	4.f\	-san-
8C/	-na	8G/	.	8c\	.	8e\	.
4D/	in	4F/	-na	4A/	na	4d\	na
!	!	!LO:TX:t=P:problem:kreska pseudotaktowa	!	!LO:TX:t=P:problem:kreska pseudotaktowa	!	!LO:TX:t=P:problem:kreska pseudotaktowa	!
4AA/	ex-	4E/	in	4A/	in	4c/	in
(2BB-/	-cel-	4D/	ex-	8G/L	ex-	4.B-/	ex-
.	.	.	.	8Fny/J	.	.	.
.	.	4d\	-cel-	(2F/	-cel-	.	.
.	.	.	.	.	.	8A/L	-cel-
2C/)	.	2c\	.	.	.	8G/	.
.	.	.	.	.	.	8F/J	.
.	.	.	.	4E/)	.	4G/	.
=28-	=28-	=28-	=28-	=28-	=28-	=28-	=28-
0FFl;	ſis	0cl;<	ſis	0Fl;	ſis	0Al;	ſis
*	*Xij	*	*Xij	*	*Xij	*	*
==	==	==	==	==	==	==	==
*-	*-	*-	*-	*-	*-	*-	*-
!!!system-decoration: [(*)]
!!!RDF**kern: < = below
!!LO:MO:ori
!!!RDF**kern: l = terminal long
!!LO:MO:end
!!!RDF**kern: i = editoral accidental
!!!filter-modern: sic -sq | shed -e "s/TX(.*):t=P:/tx$1:t=P:/LG" | shed -k -e "s/LO:N:acc/LO:n:acc:/L" | shed -e "s/^(\d+[\/\\]right)/$1yy/I; s/^(\d+[\/\\]left)/$1yy/I" | shed -e "s/-//B" | autostem -r | tie -s | shed -k -e "s/[<>]//g" | shed -k -e "s/[<>]//g" | humtr -p | shed -e "s/^custos:/Xcustos:/I" | modori -m
!!!ENC: Marta Opryszak
!!!END: 2022-05-08
!!!ENC: Andrzej Kubiczek
!!!END: 2022-05-15
!!!ENC-modern: Andrzej Borzym
!!!END-modern: 2022-06-27
!!!ENC-iiif: Marta Opryszak
!!!END-iiif: 2022-09-08
!!!YEC: Copyright 2022 Narodowy Instytut Fryderyka Chopina (https://polishscores.org)
!!!YEM: License CC-BY-4.0 (https://creativecommons.org/licenses/by/4.0)
